X:344930
T: The Belfast Lasses Reel
R: Irish reel
M: 4/4
L: 1/8
Z: Contributed 2018-01-28 00:00:55 by veda  vbusiness@roadrunner.com
K: Gmaj
"G"G2 (BG) dGBG|"Am"EAAG "D"FAFD|"G"G2 (BG) dGBG|1 "C"Ec"D"AF "G"G2G2:|2 "C"eg"D"fa "G"g2g2||
"G"gddc BdBG|"D"FAAG FAFD|"G"gddc BdBG|"D"EFGF "G"G2G2|
"G"gddc BdBG|"D"FAAG FAFD|"G"gd"C"ec "G"BdBG|"C"eg"D"fa "G"g2g2|]

